X: 1
T:KATE DALRYMPYLE
M:C
L:1/8
Q:80
C:Traditional
S:Reel
K:HP
|: {g}A3/2{d}A/2{e}A{d}c{g}B3/2{d}B/2{e}B{d}c|
{g}A3/2{d}A/2{e}A{d}c{g}B3/2{d}B/2{e}B{d}c|
{gAd}A2ag{a}fe{gde}dc|  !
{g}B3/2c/2{g}d3/2e/2{gcd}c2{e}A2:| [|
{g}c/2e3/2{A}e3/2f/2{gef}e3/2d/2{g}c3/2d/2|
{gef}e2a2{ef}e3/2d/2{g}c3/2d/2|  !
{g}c/2e3/2{A}ef/2{gef}e3/2d/2{g}c3/2d/2|
{gef}ea{ef}e2{g}c2|
{Gdc}d2{g}fd{gcd}c2ac|  !
{g}B3/2{d}B/2{e}B{d}c{g}e3/2d/2{g}c3/2B/2|
{gAd}A2ag{a}fe{gde}dc|
{g}B3/2c/2{g}d3/2e/2{gcd}c2{e}A2|]  !
